build/security/FingerprintSolid.svg

<svg xmlns="http://www.w3.org/2000/svg" fill="none" viewBox="0 0 24 24" focusable="false"><path d="M0 0H24V24H0z"/><path fill="#74767B" fill-rule="evenodd" d="M19 2.00012L5 2.00012C3.34315 2.00012 2 3.34327 2 5.00012L2 19.0001C2 20.657 3.34315 22.0001 5 22.0001L19 22.0001C20.6569 22.0001 22 20.657 22 19.0001L22 5.00012C22 3.34327 20.6569 2.00012 19 2.00012ZM8.01432 7.14513C9.10794 6.27344 10.4923 5.75288 12 5.75288C13.6879 5.75288 15.2219 6.40538 16.3658 7.47313C16.6283 7.71807 17.0396 7.70389 17.2845 7.44146C17.5295 7.17902 17.5153 6.76771 17.2529 6.52276C15.8777 5.23925 14.03 4.45288 12 4.45288C10.1875 4.45288 8.51957 5.07998 7.20403 6.12855C5.4354 7.53828 4.30003 9.7132 4.30003 12.1529C4.30003 12.6988 4.35695 13.2322 4.4654 13.7471C4.53939 14.0984 4.88413 14.3231 5.23541 14.2492C5.58669 14.1752 5.81148 13.8304 5.73749 13.4791C5.64749 13.0518 5.60003 12.6082 5.60003 12.1529C5.60003 10.1256 6.54183 8.31881 8.01432 7.14513ZM18.9404 8.81433C18.7846 8.49093 18.3961 8.35509 18.0727 8.51091C17.7493 8.66674 17.6135 9.05523 17.7693 9.37863C18.1733 10.2171 18.4 11.1576 18.4 12.1529L18.4 12.1743C18.4001 12.9392 18.4001 13.3309 18.1771 14.7497C18.1214 15.1043 18.3637 15.437 18.7184 15.4927C19.073 15.5484 19.4057 15.3061 19.4614 14.9515C19.6979 13.446 19.7 12.9924 19.7 12.1529C19.7 10.9581 19.4274 9.82506 18.9404 8.81433ZM12.0001 7.38708C11.6411 7.38708 11.3501 7.6781 11.3501 8.03708C11.3501 8.39607 11.6411 8.68708 12.0001 8.68708C13.6625 8.68708 15.0516 9.86334 15.378 11.4294C15.4512 11.7808 15.7955 12.0064 16.1469 11.9331C16.4983 11.8599 16.7239 11.5156 16.6506 11.1642C16.2012 9.00755 14.2906 7.38708 12.0001 7.38708ZM10.0363 9.29954C10.3314 9.09501 10.4047 8.69005 10.2002 8.39502C9.99567 8.1 9.5907 8.02664 9.29568 8.23116C8.06048 9.08747 7.24955 10.5173 7.24955 12.1376C7.24955 13.2348 7.14829 13.9006 6.96657 14.4242C6.7846 14.9486 6.50751 15.3759 6.0644 15.9978C5.85609 16.2902 5.92423 16.6961 6.21659 16.9044C6.50896 17.1127 6.91483 17.0446 7.12315 16.7522C7.57066 16.1241 7.94646 15.5658 8.19471 14.8504C8.44323 14.1344 8.54955 13.3065 8.54955 12.1376C8.54955 10.9613 9.13664 9.92325 10.0363 9.29954ZM12.0001 11.2753C11.539 11.2753 11.1652 11.649 11.1652 12.1101C11.1652 12.4691 10.8742 12.7601 10.5152 12.7601C10.1563 12.7601 9.86524 12.4691 9.86524 12.1101C9.86524 10.9311 10.821 9.97527 12.0001 9.97527C13.1791 9.97527 14.1349 10.9311 14.1349 12.1101C14.1349 14.6294 13.7997 16.3801 12.4629 19.2148C12.3098 19.5395 11.9225 19.6785 11.5978 19.5254C11.2731 19.3723 11.134 18.985 11.2871 18.6603C12.5441 15.9949 12.8349 14.4331 12.8349 12.1101C12.8349 11.649 12.4611 11.2753 12.0001 11.2753ZM10.6503 13.6611C11.0014 13.7357 11.2256 14.0808 11.1511 14.4319C10.7046 16.5342 9.91825 17.7434 9.32072 18.5567C9.10817 18.846 8.70135 18.9083 8.41205 18.6957C8.12275 18.4832 8.06053 18.0763 8.27307 17.787C8.80054 17.0691 9.48299 16.0284 9.87943 14.1618C9.95401 13.8107 10.2991 13.5865 10.6503 13.6611ZM16.994 13.6722C16.994 13.3131 16.7029 13.0221 16.3438 13.0221C15.9848 13.0221 15.6937 13.3131 15.6937 13.6722C15.6937 14.8339 15.4911 15.8727 15.2867 16.6232C15.1849 16.9973 15.0834 17.2966 15.0085 17.5001C14.971 17.6018 14.9403 17.6793 14.9196 17.7299C14.9092 17.7553 14.9013 17.7738 14.8964 17.7854L14.8912 17.7973L14.8904 17.7992C14.7444 18.1268 14.8914 18.5108 15.2189 18.6573C15.5431 18.8022 15.9339 18.6517 16.0784 18.3277L16.0794 18.3255L16.0822 18.3191L16.0914 18.2978C16.0991 18.28 16.1097 18.2548 16.1228 18.2228C16.1491 18.1586 16.1855 18.0667 16.2286 17.9495C16.3149 17.7154 16.4283 17.3799 16.5413 16.9648C16.7668 16.1367 16.994 14.9797 16.994 13.6722Z"/></svg>

<svg xmlns="http://www.w3.org/2000/svg" fill="none" viewBox="0 0 24 24" focusable="false"><path fill="#74767B" fill-rule="evenodd" d="M19 2H5C3.34 2 2 3.34 2 5v14c0 1.65 1.34 3 3 3h14c1.65 0 3-1.35 3-3V5c0-1.66-1.35-3-3-3M8.01 7.14A6.38 6.38 0 0 1 12 5.75c1.68 0 3.22.65 4.36 1.72.26.24.67.23.92-.03.24-.27.23-.68-.03-.92A7.65 7.65 0 0 0 12 4.45c-1.82 0-3.49.62-4.8 1.67a7.69 7.69 0 0 0-2.9 6.03c0 .54.05 1.08.16 1.59.07.35.42.58.77.5.35-.07.58-.41.5-.77a6.395 6.395 0 0 1 2.28-6.33m10.93 1.67a.653.653 0 0 0-.87-.3c-.33.15-.46.54-.31.86.41.84.64 1.78.64 2.78v.02c0 .76 0 1.16-.23 2.57-.05.36.19.69.54.75.36.05.69-.19.75-.54.23-1.51.24-1.96.24-2.8 0-1.2-.28-2.33-.76-3.34M12 7.38c-.36 0-.65.29-.65.65s.29.65.65.65c1.66 0 3.05 1.18 3.37 2.74.08.36.42.58.77.51.35-.08.58-.42.51-.77A4.75 4.75 0 0 0 12 7.38m-1.97 1.91a.647.647 0 1 0-.74-1.06 4.74 4.74 0 0 0-2.05 3.9c0 1.1-.1 1.77-.28 2.29s-.46.95-.9 1.57c-.21.3-.14.7.15.91s.7.14.91-.15c.45-.63.82-1.19 1.07-1.9.25-.72.35-1.55.35-2.72s.59-2.21 1.49-2.84M12 11.27c-.47 0-.84.37-.84.84 0 .35-.29.65-.65.65s-.65-.3-.65-.65c0-1.18.96-2.14 2.14-2.14 1.17 0 2.13.96 2.13 2.14 0 2.51-.34 4.27-1.67 7.1-.16.32-.54.46-.87.31a.65.65 0 0 1-.31-.86c1.26-2.67 1.55-4.23 1.55-6.55a.83.83 0 0 0-.83-.84m-1.35 2.39c.35.07.57.42.5.77-.45 2.1-1.24 3.31-1.83 4.12-.22.29-.62.35-.91.14a.653.653 0 0 1-.14-.91c.53-.72 1.21-1.76 1.6-3.62.08-.35.42-.58.78-.5m6.34.01c0-.36-.29-.65-.65-.65s-.65.29-.65.65c0 1.16-.2 2.2-.41 2.95-.1.37-.2.67-.28.88-.03.1-.06.17-.09.22-.01.03-.01.05-.02.06v.01c-.15.33 0 .72.32.86.33.15.72 0 .86-.33l.01-.01.01-.02c0-.01.01-.04.03-.07.02-.07.06-.16.1-.28.09-.23.2-.57.32-.98.22-.83.45-1.99.45-3.29"/></svg>
